X:1
T:Jordan River Is Flowing By
T:Ada Blenkhorn, 1910
T:Jordan River Is Flowing By
T:Public Domain
T:Public Domain
T:Public Domain
C:Ada Blenkhorn, 1910
Z:Public Domain
%%score 1 ( 2 3 )
L:1/8
M:4/4
K:C
V:1 treble 
V:2 bass 
V:3 bass 
V:1
 [CE][DF] | [EG]>[EG] [EG][EG] [EG]2 [CE][EG] | [Ec]>[Ec] [Fc][Fc] [Ec]2 [EG][EG] | %3
w: 1.~Would your|heart be free from sin, Have the|peace of God with- in? There’s a|
w: 2.~Have you|sought in vain for rest, Doubt- ed|whe- ther God knows best? There’s a|
w: 3.~Are you|tempt- ed to de- clare O- ther|wa- ters are more fair, There’s a|
w: 4.~O, the|Sav- ior’s wound- ed side Crim- sons|all this riv- er’s tide, There’s a|
 [Gc]2 [EG]2 [Ge][Ec][DB][Fd] | [Ec]6 [CE][DF] | [EG]>[EG] [EG][EG] [EG]2 [CE][EG] | %6
w: Jor- dan riv- er flow- ing|by; Would you|whit- er be than snow? To its|
w: Jor- dan riv- er flow- ing|by; Naa- man|found God’s word was true; It will|
w: Jor- dan riv- er flow- ing|by; He hath|spok- en, “Wash, be clean,” Hard up-|
w: Jor- dan riv- er flow- ing|by; He a-|lone hath power to save, Trust Him|
 [Ec]>[Ec] [Fc][Fc] [Ec]2 [EG][EG] | [Gc]2 [EG]2 [Ge][Ec][DB][Fd] | [Ec]6 ||"^Refrain" [EG][EG] | %10
w: cleans- ing wa- ters go; There’s a|Jor- dan riv- er flow- ing|by.||
w: be the same with you, There’s a|Jor- dan riv- er flow- ing|by.|Flow- ing|
w: on His prom- ise lean, There’s a|Jor- dan riv- er flow- ing|by.||
w: for the cleans- ing wave, There’s a|Jor- dan riv- er flow- ing|by.||
 [Fd]6 [FB][FG] | [Ec]6 [Gc][GB] | [FA]>[FA] [FA][FA] [FA][Fc][FA][Fc] | [EG]6 [EG][EG] | %14
w: ||||
w: by, flow- ing|by, There’s a|cleans- ing Jor- dan riv- er flow- ing|by; Flow- ing|
w: ||||
w: ||||
 [Fd]6 [FB][FG] | [Ge]6 [EG][EG] | [FA]>[GB] [Ac][Ad] [Ge][Ec][DB][Fd] | [Ec]6 |] %18
w: ||||
w: by, flow- ing|by, Plunge be-|neath its heal- ing wa- ters, help is|nigh.|
w: ||||
w: ||||
V:2
 [C,G,][C,G,] | [C,C]>[C,C] [C,C][C,C] [C,C]2 [C,G,][C,G,] | %2
w: ~ ~|~ ~ ~ ~ ~ ~ ~|
 [C,G,]>[C,G,] [C,A,][C,A,] [C,G,]2 [C,C][C,C] | [E,C]2 [C,C]2 [G,C]G,[G,,G,][G,,G,] | %4
w: ~ ~ ~ ~ ~ ~ ~|~ ~ ~ ~ ~ ~|
 [C,G,]6 [C,G,][C,G,] | [C,C]>[C,C] [C,C][C,C] [C,C]2 [C,G,][C,G,] | %6
w: ~ ~ ~|~ ~ ~ ~ ~ ~ ~|
 [C,G,]>[C,G,] [C,A,][C,A,] [C,G,]2 [C,C][C,C] | [E,C]2 [C,C]2 [G,C]G,[G,,G,][G,,G,] | [C,G,]6 || %9
w: ~ ~ ~ ~ ~ ~ ~|~ ~ ~ ~ ~ ~|ing|
 z2 | z2 G,[G,A,] [G,B,]2 z2 | z2 [C,C][C,A,] [C,G,]2 [E,C][E,C] | %12
w: |by, flow- ing|~ ~ ~ ~ ~|
 [F,C]>[F,C] [F,C][F,C] [F,C][F,A,][F,C][A,C] | C6 z2 | z2 G,[G,A,] [G,B,]2 z2 | %15
w: ~ ~ ~ ~ ~ ~ Flow- ing|by,|ing by, *|
 z2 [C,C][C,A,] [C,G,]2 [C,C][C,C] | [F,C]>[F,C] [F,C][F,C] [G,C]G,[G,,G,][G,,G,] | [C,G,]6 |] %18
w: |||
V:3
 x2 | x8 | x8 | x5 G, x2 | x8 | x8 | x8 | x5 G, x2 | x6 || x2 | x2 G, x5 | x8 | x8 | C6 x2 | %14
w: |||~||||Flow-|||by,|||flow-|
 x2 G, x5 | x8 | x5 G, x2 | x6 |] %18
w: ||||

